svgs/regular/ranking-star.svg

<svg xmlns="http://www.w3.org/2000/svg" viewBox="0 0 640 512"><!--! Font Awesome Pro 6.1.1 by @fontawesome - https://fontawesome.com License - https://fontawesome.com/license (Commercial License) Copyright 2022 Fonticons, Inc. --><path d="M406.1 61.65C415.4 63.09 419.4 74.59 412.6 81.41L374.6 118.1L383.6 170.1C384.1 179.5 375.3 186.7 366.7 182.4L320.2 157.9L273.3 182.7C264.7 187 255 179.8 256.4 170.5L265.4 118.4L227.4 81.41C220.6 74.59 224.6 63.09 233.9 61.65L286.2 54.11L309.8 6.332C314.1-2.289 326.3-1.93 330.2 6.332L353.8 54.11L406.1 61.65zM224 304C224 277.5 245.5 256 272 256H368C394.5 256 416 277.5 416 304V464C416 490.5 394.5 512 368 512H272C245.5 512 224 490.5 224 464V304zM272 464H368V304H272V464zM0 368C0 341.5 21.49 320 48 320H144C170.5 320 192 341.5 192 368V464C192 490.5 170.5 512 144 512H48C21.49 512 0 490.5 0 464V368zM48 464H144V368H48V464zM592 352C618.5 352 640 373.5 640 400V464C640 490.5 618.5 512 592 512H496C469.5 512 448 490.5 448 464V400C448 373.5 469.5 352 496 352H592zM592 400H496V464H592V400z"/></svg>

<svg xmlns="http://www.w3.org/2000/svg" viewBox="0 0 640 512"><!--! Font Awesome Pro 6.4.2 by @fontawesome - https://fontawesome.com License - https://fontawesome.com/license (Commercial License) Copyright 2023 Fonticons, Inc. --><path d="M353.8 54.1l52.3 7.5c9.3 1.4 13.2 12.9 6.4 19.8l-38 36.6 9 52.1c1.4 9.3-8.2 16.5-16.8 12.2l-46.6-24.4-46.9 24.8c-8.6 4.3-18.3-2.9-16.8-12.2l9-52.1-38-37c-6.8-6.8-2.9-18.3 6.4-19.8l52.3-7.5L309.8 6.3c4.3-8.6 16.5-8.3 20.4 0l23.6 47.8zM272 304V464h96V304H272zm-48 0c0-26.5 21.5-48 48-48h96c26.5 0 48 21.5 48 48V464c0 26.5-21.5 48-48 48H272c-26.5 0-48-21.5-48-48V304zM48 368v96h96V368H48zM0 368c0-26.5 21.5-48 48-48h96c26.5 0 48 21.5 48 48v96c0 26.5-21.5 48-48 48H48c-26.5 0-48-21.5-48-48V368zm592 32H496v64h96V400zm-96-48h96c26.5 0 48 21.5 48 48v64c0 26.5-21.5 48-48 48H496c-26.5 0-48-21.5-48-48V400c0-26.5 21.5-48 48-48z"/></svg>
